X:1
T:Miss McPherson of Edinburgh's Reel
T:Miss McPherson of Edinburgh's Reel
T:William Marshall
C:William Marshall
L:1/8
Q:1/8=232
M:4/4
K:Bb
V:1 treble 
V:1
|: E | D2 B,D FD BF | DB, FD EC CE | D2 B,D FD BF | ec dA BB, B,E | D2 B,D FD BF | DB, FD EC CE | %7
 D2 B,D FD BF | ec dA BB, B,e | de fd ge fd | ec dB ec ce | de fd ge fd | ga bf dB Be | %13
 de fd ge fd | ec dB ec cd | DB, FD GE BG | FD ec dBB :| %17

